public/img/english-flag.svg

<svg width="16" height="12" viewBox="0 0 16 12" fill="none" xmlns="http://www.w3.org/2000/svg">
<g id="flag">
<g id="contents">
<path id="background" fill-rule="evenodd" clip-rule="evenodd" d="M0 0V12H16V0H0Z" fill="#2E42A5"/>
<mask id="mask0_1517_1085" style="mask-type:luminance" maskUnits="userSpaceOnUse" x="0" y="0" width="16" height="12">
<path id="background_2" fill-rule="evenodd" clip-rule="evenodd" d="M0 0V12H16V0H0Z" fill="white"/>
</mask>
<g mask="url(#mask0_1517_1085)">
<g id="mark 1">
<g id="contents_2">
<g id="stripe">
<path id="white" d="M-1.78125 11.1426L1.73959 12.6316L16.0802 1.61878L17.9374 -0.593959L14.1723 -1.09164L8.32315 3.6541L3.61514 6.85161L-1.78125 11.1426Z" fill="white"/>
<path id="red" d="M-1.29883 12.1859L0.49488 13.05L17.2709 -0.799421H14.7523L-1.29883 12.1859Z" fill="#F50100"/>
</g>
<g id="stripe_2">
<path id="white_2" d="M17.7832 11.1428L14.2624 12.6318L-0.0782604 1.61903L-1.93542 -0.593715L1.82961 -1.09139L7.67881 3.65434L12.3868 6.85186L17.7832 11.1428Z" fill="white"/>
<path id="red_2" d="M17.6631 11.8913L15.8694 12.7554L8.72598 6.82569L6.60811 6.16318L-2.11411 -0.586414H0.404467L9.12179 6.00298L11.4373 6.7974L17.6631 11.8913Z" fill="#F50100"/>
</g>
<g id="cross">
<g id="red_3">
<mask id="path-7-inside-1_1517_1085" fill="white">
<path fill-rule="evenodd" clip-rule="evenodd" d="M9.89106 -1H6.11328V4H-0.984375V8H6.11328V13H9.89106V8H17.0156V4H9.89106V-1Z"/>
</mask>
<path fill-rule="evenodd" clip-rule="evenodd" d="M9.89106 -1H6.11328V4H-0.984375V8H6.11328V13H9.89106V8H17.0156V4H9.89106V-1Z" fill="#F50100"/>
<path d="M6.11328 -1V-2H5.11328V-1H6.11328ZM9.89106 -1H10.8911V-2H9.89106V-1ZM6.11328 4V5H7.11328V4H6.11328ZM-0.984375 4V3H-1.98438V4H-0.984375ZM-0.984375 8H-1.98438V9H-0.984375V8ZM6.11328 8H7.11328V7H6.11328V8ZM6.11328 13H5.11328V14H6.11328V13ZM9.89106 13V14H10.8911V13H9.89106ZM9.89106 8V7H8.89106V8H9.89106ZM17.0156 8V9H18.0156V8H17.0156ZM17.0156 4H18.0156V3H17.0156V4ZM9.89106 4H8.89106V5H9.89106V4ZM6.11328 0H9.89106V-2H6.11328V0ZM7.11328 4V-1H5.11328V4H7.11328ZM-0.984375 5H6.11328V3H-0.984375V5ZM0.015625 8V4H-1.98438V8H0.015625ZM6.11328 7H-0.984375V9H6.11328V7ZM7.11328 13V8H5.11328V13H7.11328ZM9.89106 12H6.11328V14H9.89106V12ZM8.89106 8V13H10.8911V8H8.89106ZM17.0156 7H9.89106V9H17.0156V7ZM16.0156 4V8H18.0156V4H16.0156ZM9.89106 5H17.0156V3H9.89106V5ZM8.89106 -1V4H10.8911V-1H8.89106Z" fill="white" mask="url(#path-7-inside-1_1517_1085)"/>
</g>
</g>
</g>
</g>
</g>
</g>
</g>
</svg>

<svg width="16" height="12" fill="none" xmlns="http://www.w3.org/2000/svg"><path fill-rule="evenodd" clip-rule="evenodd" d="M0 0v12h16V0H0Z" fill="#2E42A5"/><mask id="a" style="mask-type:luminance" maskUnits="userSpaceOnUse" x="0" y="0" width="16" height="12"><path fill-rule="evenodd" clip-rule="evenodd" d="M0 0v12h16V0H0Z" fill="#fff"/></mask><g mask="url(#a)"><path d="m-1.781 11.143 3.52 1.489L16.08 1.619l1.857-2.213-3.765-.498-5.849 4.746-4.708 3.198-5.396 4.29Z" fill="#fff"/><path d="m-1.299 12.186 1.794.864L17.27-.8h-2.519l-16.05 12.986Z" fill="#F50100"/><path d="m17.783 11.143-3.52 1.489L-.079 1.619-1.935-.594 1.83-1.09l5.849 4.745 4.708 3.198 5.396 4.29Z" fill="#fff"/><path d="m17.663 11.891-1.794.864-7.143-5.93-2.118-.662-8.722-6.75H.404l8.718 6.59 2.315.794 6.226 5.094Z" fill="#F50100"/><mask id="b" fill="#fff"><path fill-rule="evenodd" clip-rule="evenodd" d="M9.891-1H6.113v5H-.984v4h7.097v5h3.778V8h7.125V4H9.89v-5Z"/></mask><path fill-rule="evenodd" clip-rule="evenodd" d="M9.891-1H6.113v5H-.984v4h7.097v5h3.778V8h7.125V4H9.89v-5Z" fill="#F50100"/><path d="M6.113-1v-1h-1v1h1Zm3.778 0h1v-1h-1v1ZM6.113 4v1h1V4h-1ZM-.984 4V3h-1v1h1Zm0 4h-1v1h1V8Zm7.097 0h1V7h-1v1Zm0 5h-1v1h1v-1Zm3.778 0v1h1v-1h-1Zm0-5V7h-1v1h1Zm7.125 0v1h1V8h-1Zm0-4h1V3h-1v1ZM9.89 4h-1v1h1V4ZM6.113 0h3.778v-2H6.113v2Zm1 4v-5h-2v5h2ZM-.984 5h7.097V3H-.984v2Zm1 3V4h-2v4h2Zm6.097-1H-.984v2h7.097V7Zm1 6V8h-2v5h2Zm2.778-1H6.113v2h3.778v-2Zm-1-4v5h2V8h-2Zm8.125-1H9.89v2h7.125V7Zm-1-3v4h2V4h-2ZM9.89 5h7.125V3H9.89v2Zm-1-6v5h2v-5h-2Z" fill="#fff" mask="url(#b)"/></g></svg>
